apps/trade/public/tokens/btc.svg

<svg width="24" height="24" viewBox="0 0 24 24" fill="none" xmlns="http://www.w3.org/2000/svg">
    <g clip-path="url(#btc_clip0_8454_264895)">
        <path
            d="M23.6383 14.9029C22.0356 21.3315 15.5244 25.2438 9.09503 23.6407C2.66833 22.038 -1.24401 15.5265 0.359382 9.09837C1.96136 2.66903 8.47253 -1.24361 14.8999 0.359081C21.3289 1.96177 25.241 8.47404 23.6381 14.903L23.6382 14.9029H23.6383Z"
            fill="#F7931A" />
        <path
            d="M17.3106 10.2903C17.5494 8.6934 16.3336 7.83498 14.6711 7.26233L15.2104 5.09914L13.8936 4.77103L13.3686 6.87726C13.0224 6.79092 12.6669 6.70957 12.3136 6.62892L12.8424 4.50878L11.5264 4.18066L10.9868 6.34315C10.7003 6.27793 10.419 6.21347 10.146 6.14554L10.1475 6.13874L8.33162 5.68528L7.98133 7.09171C7.98133 7.09171 8.95829 7.31565 8.9377 7.32943C9.47093 7.46252 9.56736 7.81551 9.55135 8.09529L8.937 10.5597C8.97372 10.569 9.02134 10.5825 9.0739 10.6036C9.02997 10.5927 8.98322 10.5808 8.93471 10.5692L8.0736 14.0214C8.00843 14.1834 7.84303 14.4266 7.47021 14.3342C7.48341 14.3534 6.51314 14.0954 6.51314 14.0954L5.85938 15.6027L7.57298 16.0299C7.89177 16.1098 8.20416 16.1935 8.51181 16.2721L7.9669 18.4601L9.28218 18.7883L9.82181 16.6235C10.1811 16.721 10.5298 16.811 10.8712 16.8958L10.3334 19.0504L11.6503 19.3785L12.1951 17.1946C14.4405 17.6196 16.1289 17.4482 16.8396 15.4172C17.4122 13.7821 16.8111 12.8389 15.6298 12.2238C16.4902 12.0254 17.1382 11.4595 17.311 10.2905L17.3106 10.2902L17.3106 10.2903ZM14.302 14.5091C13.895 16.1443 11.1419 15.2604 10.2493 15.0387L10.9724 12.14C11.8649 12.3628 14.7273 12.8038 14.302 14.5091H14.302ZM14.7092 10.2666C14.338 11.754 12.0465 10.9984 11.3032 10.8131L11.9588 8.1841C12.7021 8.36939 15.0959 8.71521 14.7093 10.2666H14.7092Z"
            fill="white" />
    </g>
    <defs>
        <clipPath id="btc_clip0_8454_264895">
            <rect width="24" height="24" fill="white" />
        </clipPath>
    </defs>
</svg>

<svg width="24" height="24" fill="none" xmlns="http://www.w3.org/2000/svg">
    <g clip-path="url(#a)">
        <path d="M23.638 14.903c-1.602 6.428-8.114 10.34-14.543 8.738C2.668 22.038-1.244 15.527.359 9.098 1.961 2.67 8.473-1.244 14.9.36c6.43 1.603 10.342 8.115 8.74 14.544Z" fill="#F7931A"/>
        <path d="M17.31 10.29c.24-1.597-.976-2.455-2.639-3.028l.54-2.163-1.317-.328-.525 2.106a54.647 54.647 0 0 0-1.055-.248l.528-2.12-1.316-.328-.54 2.162c-.286-.065-.567-.13-.84-.197l.002-.007-1.816-.454-.35 1.407s.976.224.956.237c.533.134.63.487.613.766l-.614 2.465c.037.009.084.022.137.044l-.14-.035-.86 3.452c-.066.162-.231.406-.604.313.013.02-.957-.239-.957-.239l-.654 1.508 1.714.427c.319.08.631.163.939.242l-.545 2.188 1.315.328.54-2.165c.36.098.708.188 1.05.273l-.539 2.154 1.317.328.545-2.183c2.245.425 3.934.253 4.645-1.778.572-1.635-.029-2.578-1.21-3.193.86-.199 1.508-.764 1.681-1.934Zm-3.008 4.22c-.407 1.634-3.16.75-4.053.529l.723-2.899c.893.223 3.755.664 3.33 2.37Zm.407-4.243c-.371 1.487-2.662.731-3.406.546l.656-2.629c.743.185 3.137.531 2.75 2.083Z" fill="#fff"/>
    </g>
    <defs>
        <clipPath id="a">
            <path fill="#fff" d="M0 0h24v24H0z"/>
        </clipPath>
    </defs>
</svg>
